gnome/icons/Varda/apps/scalable/qv4l2.svg

<?xml version="1.0" encoding="UTF-8" standalone="no"?>
<svg
   xmlns:dc="http://purl.org/dc/elements/1.1/"
   xmlns:cc="http://creativecommons.org/ns#"
   xmlns:rdf="http://www.w3.org/1999/02/22-rdf-syntax-ns#"
   xmlns:svg="http://www.w3.org/2000/svg"
   xmlns="http://www.w3.org/2000/svg"
   xmlns:sodipodi="http://sodipodi.sourceforge.net/DTD/sodipodi-0.dtd"
   xmlns:inkscape="http://www.inkscape.org/namespaces/inkscape"
   width="64px"
   height="64px"
   viewBox="0 0 64 64"
   version="1.1"
   id="svg17"
   sodipodi:docname="qv4l2.svg"
   inkscape:version="1.0.2 (e86c870879, 2021-01-15)">
  <metadata
     id="metadata23">
    <rdf:RDF>
      <cc:Work
         rdf:about="">
        <dc:format>image/svg+xml</dc:format>
        <dc:type
           rdf:resource="http://purl.org/dc/dcmitype/StillImage" />
      </cc:Work>
    </rdf:RDF>
  </metadata>
  <defs
     id="defs21" />
  <sodipodi:namedview
     pagecolor="#ffffff"
     bordercolor="#666666"
     borderopacity="1"
     objecttolerance="10"
     gridtolerance="10"
     guidetolerance="10"
     inkscape:pageopacity="0"
     inkscape:pageshadow="2"
     inkscape:window-width="2560"
     inkscape:window-height="1403"
     id="namedview19"
     showgrid="false"
     inkscape:zoom="15.75"
     inkscape:cx="32"
     inkscape:cy="32"
     inkscape:window-x="0"
     inkscape:window-y="0"
     inkscape:window-maximized="1"
     inkscape:current-layer="surface1" />
  <g
     id="surface1">
    <path
       style="fill:#733447;fill-opacity:1;fill-rule:nonzero;stroke:none"
       d="m 5.292969,5.792969 h 52.914062 c 1.460938,0 2.648438,1.183593 2.648438,2.644531 v 47.625 c 0,1.460938 -1.1875,2.644531 -2.648438,2.644531 H 5.292969 c -1.460938,0 -2.648438,-1.183593 -2.648438,-2.644531 V 8.4375 c 0,-1.460938 1.1875,-2.644531 2.648438,-2.644531 z m 0,0"
       id="path2" />
    <path
       style="fill:#0c0e11;fill-opacity:1;fill-rule:nonzero;stroke:none"
       d="m 15.875,11.082031 h 31.75 c 4.382812,0 7.9375,3.554688 7.9375,7.9375 V 40.1875 c 0,4.382812 -3.554688,7.9375 -7.9375,7.9375 h -31.75 c -4.382812,0 -7.9375,-3.554688 -7.9375,-7.9375 V 19.019531 c 0,-4.382812 3.554688,-7.9375 7.9375,-7.9375 z m 0,0"
       id="path4" />
    <path
       style="fill:#d0ebee;fill-opacity:1;fill-rule:nonzero;stroke:none"
       d="m 52.917969,50.769531 c 1.460937,0 2.644531,1.1875 2.644531,2.648438 0,1.460937 -1.183594,2.644531 -2.644531,2.644531 -1.460938,0 -2.648438,-1.183594 -2.648438,-2.644531 0,-1.460938 1.1875,-2.648438 2.648438,-2.648438 z m 0,0"
       id="path6" />
    <path
       style="fill:#d0ebee;fill-opacity:1;fill-rule:nonzero;stroke:none"
       d="m 10.582031,50.769531 c 1.460938,0 2.648438,1.1875 2.648438,2.648438 0,1.460937 -1.1875,2.644531 -2.648438,2.644531 -1.460937,0 -2.644531,-1.183594 -2.644531,-2.644531 0,-1.460938 1.183594,-2.648438 2.644531,-2.648438 z m 0,0"
       id="path8" />
    <path
       style="fill:#0c0e11;fill-opacity:1;fill-rule:nonzero;stroke:none"
       d="m 52.917969,52.09375 c 0.730469,0 1.320312,0.59375 1.320312,1.324219 0,0.730469 -0.589843,1.320312 -1.320312,1.320312 -0.730469,0 -1.324219,-0.589843 -1.324219,-1.320312 0,-0.730469 0.59375,-1.324219 1.324219,-1.324219 z m 0,0"
       id="path10" />
    <path
       style="fill:#0c0e11;fill-opacity:1;fill-rule:nonzero;stroke:none"
       d="m 10.582031,52.09375 c 0.730469,0 1.324219,0.59375 1.324219,1.324219 0,0.730469 -0.59375,1.320312 -1.324219,1.320312 -0.730469,0 -1.320312,-0.589843 -1.320312,-1.320312 0,-0.730469 0.589843,-1.324219 1.320312,-1.324219 z m 0,0"
       id="path12" />
    <path
       style="fill:#d0ebee;fill-opacity:1;fill-rule:nonzero;stroke:none"
       d="m 14.730469,14.390625 c 0.632812,0.367187 0.257812,2.199219 -0.839844,4.097656 -1.097656,1.898438 -2.496094,3.140625 -3.128906,2.777344 -0.632813,-0.367187 -0.257813,-2.203125 0.835937,-4.097656 1.097656,-1.898438 2.5,-3.144531 3.132813,-2.777344 z m 0,0"
       id="path14" />
  </g>
</svg>

<?xml version="1.0" encoding="UTF-8"?>
<svg xmlns="http://www.w3.org/2000/svg" xmlns:xlink="http://www.w3.org/1999/xlink" width="64px" height="64px" viewBox="0 0 64 64" version="1.1">
<g id="surface1">
<path style=" stroke:none;fill-rule:nonzero;fill:rgb(55.29412%,43.137255%,38.82353%);fill-opacity:1;" d="M 5.292969 5.792969 L 58.207031 5.792969 C 59.667969 5.792969 60.855469 6.976562 60.855469 8.4375 L 60.855469 56.0625 C 60.855469 57.523438 59.667969 58.707031 58.207031 58.707031 L 5.292969 58.707031 C 3.832031 58.707031 2.644531 57.523438 2.644531 56.0625 L 2.644531 8.4375 C 2.644531 6.976562 3.832031 5.792969 5.292969 5.792969 Z M 5.292969 5.792969 "/>
<path style=" stroke:none;fill-rule:nonzero;fill:rgb(25.882354%,25.882354%,25.882354%);fill-opacity:1;" d="M 15.875 11.082031 L 47.625 11.082031 C 52.007812 11.082031 55.5625 14.636719 55.5625 19.019531 L 55.5625 40.1875 C 55.5625 44.570312 52.007812 48.125 47.625 48.125 L 15.875 48.125 C 11.492188 48.125 7.9375 44.570312 7.9375 40.1875 L 7.9375 19.019531 C 7.9375 14.636719 11.492188 11.082031 15.875 11.082031 Z M 15.875 11.082031 "/>
<path style=" stroke:none;fill-rule:nonzero;fill:rgb(87.843138%,87.843138%,87.843138%);fill-opacity:1;" d="M 52.917969 50.769531 C 54.378906 50.769531 55.5625 51.957031 55.5625 53.417969 C 55.5625 54.878906 54.378906 56.0625 52.917969 56.0625 C 51.457031 56.0625 50.269531 54.878906 50.269531 53.417969 C 50.269531 51.957031 51.457031 50.769531 52.917969 50.769531 Z M 52.917969 50.769531 "/>
<path style=" stroke:none;fill-rule:nonzero;fill:rgb(87.843138%,87.843138%,87.843138%);fill-opacity:1;" d="M 10.582031 50.769531 C 12.042969 50.769531 13.230469 51.957031 13.230469 53.417969 C 13.230469 54.878906 12.042969 56.0625 10.582031 56.0625 C 9.121094 56.0625 7.9375 54.878906 7.9375 53.417969 C 7.9375 51.957031 9.121094 50.769531 10.582031 50.769531 Z M 10.582031 50.769531 "/>
<path style=" stroke:none;fill-rule:nonzero;fill:rgb(55.29412%,43.137255%,38.82353%);fill-opacity:1;" d="M 52.917969 52.09375 C 53.648438 52.09375 54.238281 52.6875 54.238281 53.417969 C 54.238281 54.148438 53.648438 54.738281 52.917969 54.738281 C 52.1875 54.738281 51.59375 54.148438 51.59375 53.417969 C 51.59375 52.6875 52.1875 52.09375 52.917969 52.09375 Z M 52.917969 52.09375 "/>
<path style=" stroke:none;fill-rule:nonzero;fill:rgb(55.29412%,43.137255%,38.82353%);fill-opacity:1;" d="M 10.582031 52.09375 C 11.3125 52.09375 11.90625 52.6875 11.90625 53.417969 C 11.90625 54.148438 11.3125 54.738281 10.582031 54.738281 C 9.851562 54.738281 9.261719 54.148438 9.261719 53.417969 C 9.261719 52.6875 9.851562 52.09375 10.582031 52.09375 Z M 10.582031 52.09375 "/>
<path style=" stroke:none;fill-rule:nonzero;fill:rgb(45.882353%,45.882353%,45.882353%);fill-opacity:1;" d="M 14.730469 14.390625 C 15.363281 14.757812 14.988281 16.589844 13.890625 18.488281 C 12.792969 20.386719 11.394531 21.628906 10.761719 21.265625 C 10.128906 20.898438 10.503906 19.0625 11.597656 17.167969 C 12.695312 15.269531 14.097656 14.023438 14.730469 14.390625 Z M 14.730469 14.390625 "/>
</g>
</svg>
